!!!OTL: 353. Der Nibelungenhort.
!!!ODT: 1840 (Mel. um)
!!!ARE: Europa, Mitteleuropa, Deutschland
!!!SCT: B0353
!!!TXL: @@DE
!!!YEM: Copyright 1995, estate of Helmut Schaffrath.
**kern	**text
*ICvox	*
*Ivox	*
*M4/4	*
*met(c)	*
*clefG2	*
*k[b-]	*
*F:	*
!LO:TX:a:t=Nicht ʒu ſchnell.	!
{4c	Es
=1	=1
4f	war
4f	ein
4f	al-
4a	-ter
=2	=2
2cc	Kö-
4f}	-nig,
{4f	ein
=3	=3
4b-	Kö-
4b-	-nig
4dd	an
4dd	dem
=4	=4
2cc	Rhein
4r}	.
{4a	der
=5	=5
4b-	lieb-
4b-	-te
4b-	nichts
4g	ſo
=6	=6
2a	we-
4a}	-nig,
{4g	als
=7	=7
4f	Ha-
4f	-der
4e	Gram
4e	und
=8	=8
2d;	Pein.
4r}	.
{4f	Es
=9	=9
4dd	grollten
4dd	.
4dd	ſei-
4dd	-ne
=10	=10
2cc	De-
4a}	-gen
{4f	um
=11	=11
4dd	ei-
8ccL	-nen
8b-J	.
4a	Schatʒ
4g#	im
=12	=12
2a	Land,
4r}	.
{4a	und
=13	=13
4a	wä-
4a	-re
4a	ſchier
4a	er-
=14	=14
2b-	-le-
4a}	-gen
{4a-	von
=15	=15
4g	ih-
4g	-rer
4g	ei-
4c	-gnen
=16	=16
2f	Hand.
4r}	.
==	==
!!!AGN: Trink - Lied, Sage
!!!GTL: Wein- und Trinklieder
!!!ONB: ESAC (Essen Associative Code) Database: BOEHME
!!!AMT: simple quadruple
!!!AIN: vox
!!!EED: Helmut Schaffrath
!!!EEV: 1.0
!!@@COMMENT:"Dieſes ſcherʒhafte Weinlied, in der gekürʒten Nibelungenſtrophe abgefaßt, iſt um 1840 entſtanden,
!!ſoll von K. Simrock gedichtet ſein. Die Mel. , wahrſcheinlich unter Studenten in Bonn entſtanden,
!!ſteht mit dem Texte in Fink's "Hausſchatʒ" 1849, ohne Namen von Dichter und Komponiſten und
!!iſt jetʒt in alle Kommersbücher aufgenommen. Hermann Möller (Ʒur althochd. Allitterationspoefte.
!!Kopenhagen 1888 S. 167) benutʒt dieſe moderne Weiſe, um daran die Versbetonung des alten Hilde-
!!brandliedes ʒu verſuchen (ſ. meinen Liederhort J, S. 65)."
!!@@END:
!!!Text: K. Simrock
!!!URL-scan: https://archive.org/details/BoehmeVtLieder1895/page/n295/mode/2up
!!!ENC: Anna Maria Matuszewska
!!!EEV: 2024/05/07
*-	*-
